X:1
T:Title
%%score { ( 1 3 ) | 2 }
L:1/8
M:4/4
K:C
V:1 treble nm="Grand Piano"
V:3 treble 
V:2 bass 
V:1
 z4 z2[Q:1/4=94] [CE][DF] | [EG][EG][FA][EG] [EG][Ec] [GB]>[FA] | [EG]2 [CE]2 [EG]2 [CE][DF] | %3
 [EG][EG][FA][EG] [EG][Ec] [Ge]>[Ge] | [^Fd]2 [Ac]2 B2 BB | BBAB [Ec][EG][Gc][Gc] | ddcd e2 ee | %7
 eede [Af][FA][Ae][Ad] | [Gc]2 [FB]2 [Ec]4 | [EG]6 z2 | z [FA]3- [FA]2 z2 | [FA]6 z2 | %12
 z [GB]3- [GB]2 z2 | [Ge]6 z2 | z [FA]3- [FA]2 z2 | G3 c c2 B2 |[M:3/4] [Ec]6 |] %17
V:2
 z4 z2 [C,G,][C,G,] | [C,C][C,C][C,C][C,C] [C,C][C,C] [C,C]>[C,C] | %2
 [C,C]2 [C,G,]2 [C,C]2 [C,G,][C,G,] | [C,C][C,C][C,C][C,C] [C,C][C,G,] [C,C]>[C,C] | %4
 [D,A,]2 [D,D]2[K:treble] [G,DG]2 [G,DG][G,DG] | %5
 [G,DG][G,DG][G,DF][G,F][K:bass] [C,G,][C,C][E,C][E,C] | %6
 [G,B,G][G,B,G][G,A,G][G,B,G] [CG]2 [CG][CG] | [CG][CG][CF][CG][K:bass] [F,C][F,C][F,C][F,F] | %8
 [G,E]2 [G,D]2 [C,C]4 | [C,C]C,C,C, C,C,C,C, | F,F,F,F, F,F, z2 | D,D,D,D, D,D,D,D, | %12
 G,G,G,G, G,G, z2 | [C,C]C,C,C, C,[C,C][D,B,][E,C] | [F,C][F,C]F,F, F,F,[F,CF][F,CF] | %15
 [G,CE]3 [G,E] [G,E]2 [G,D]2 |[M:3/4] [C,G,]6 |] %17
V:3
 x8 | x8 | x8 | x8 | x8 | x8 | x8 | x8 | x8 | z CCC C[G,CE][CEG][CEc] | [CGB]CCC CC z2 | %11
 DDDD D[DGB][DAc][DBd] | [DAc]DDD DDGG | z CCC C[Ge][Fd][Ec] | .[GB]2 CC CCAA | x8 |[M:3/4] x6 |] %17

